X: 3366
M: 2/4
L: 1/8
K: G
(g/f/) |\
ed/c/ BA | BGE>uF | GG G/A/B/c/ | (d2 B)(g/f/) |\
ed/c/ BA | BGE>G | FA DE/F/ | G2G :|
|: c |\
ed/c/ BA | BGE>G | FA DE/F/ | G2G :|


